Numix/32x32/actions/document-export.svg

<?xml version="1.0" encoding="UTF-8" standalone="no"?>
<svg
   xmlns:dc="http://purl.org/dc/elements/1.1/"
   xmlns:cc="http://creativecommons.org/ns#"
   xmlns:rdf="http://www.w3.org/1999/02/22-rdf-syntax-ns#"
   xmlns:svg="http://www.w3.org/2000/svg"
   xmlns="http://www.w3.org/2000/svg"
   xmlns:sodipodi="http://sodipodi.sourceforge.net/DTD/sodipodi-0.dtd"
   xmlns:inkscape="http://www.inkscape.org/namespaces/inkscape"
   width="32"
   height="32"
   viewBox="0 0 32 32"
   id="svg2"
   version="1.1"
   inkscape:version="0.91 r13725"
   sodipodi:docname="document-export.svg">
  <metadata
     id="metadata14">
    <rdf:RDF>
      <cc:Work
         rdf:about="">
        <dc:format>image/svg+xml</dc:format>
        <dc:type
           rdf:resource="http://purl.org/dc/dcmitype/StillImage" />
      </cc:Work>
    </rdf:RDF>
  </metadata>
  <defs
     id="defs12" />
  <sodipodi:namedview
     pagecolor="#ffffff"
     bordercolor="#666666"
     borderopacity="1"
     objecttolerance="10"
     gridtolerance="10"
     guidetolerance="10"
     inkscape:pageopacity="0"
     inkscape:pageshadow="2"
     inkscape:window-width="1366"
     inkscape:window-height="704"
     id="namedview10"
     showgrid="true"
     inkscape:zoom="14.75"
     inkscape:cx="2.779661"
     inkscape:cy="16"
     inkscape:window-x="0"
     inkscape:window-y="27"
     inkscape:window-maximized="1"
     inkscape:current-layer="svg2">
    <inkscape:grid
       type="xygrid"
       id="grid4142" />
  </sodipodi:namedview>
  <g
     style="fill-rule:evenodd"
     id="g4">
    <path
       style="fill:#fff"
       d="M 3.429688 0 L 20.570312 0 C 24 0 24 0 24 3.554688 L 24 28.445312 C 24 32 24 32 20.570312 32 L 3.429688 32 C 0 32 0 32 0 28.445312 L 0 3.554688 C 0 0 0 0 3.429688 0 Z "
       id="path6" />
    <path
       style="fill:#268bd2"
       d="m 18.751106,26.75 c 0.281272,0 0.63539,-0.308274 1.18759,-0.75 l 10.00075,-8 c 2.217423,-1.773806 2.208796,-2.233096 0,-4 L 19.938696,6 c -1.656598,-1.3251783 -1.937646,-1 -2.00015,2.25 -0.01924,1.0003032 0,3.75 0,3.75 l -0.0625,0 C 7.9377954,12 3.9374954,18 4.0000001,26.0625 7.9377954,22 11.938095,20 17.938546,20.125 l 0,3.625 c 0.0625,2.25 0.250018,3 0.81256,3 z"
       id="path8"
       inkscape:connector-curvature="0"
       sodipodi:nodetypes="sssssscscccs" />
  </g>
</svg>

<svg width="32" xmlns="http://www.w3.org/2000/svg" height="32" viewBox="0 0 32 32" xmlns:xlink="http://www.w3.org/1999/xlink">
<g style="fill-rule:evenodd">
<path style="fill:#fff" d="M 3.429688 0 L 20.570312 0 C 24 0 24 0 24 3.554688 L 24 28.445312 C 24 32 24 32 20.570312 32 L 3.429688 32 C 0 32 0 32 0 28.445312 L 0 3.554688 C 0 0 0 0 3.429688 0 Z "/>
<path style="fill:#268bd2" d="M 18.75 26.75 C 19.03125 26.75 19.4375 26.5 19.9375 26 L 29.9375 18 C 31.945312 15.992188 31.9375 16 29.9375 14 L 19.9375 6 C 18.4375 4.5 18.03125 5.25 17.9375 8.25 C 17.90625 9.25 17.9375 10.5 17.9375 12 C 17.917969 12 17.898438 12 17.875 12 C 7.9375 12 3.9375 18 4 26.0625 C 7.9375 22 11.9375 20 17.9375 20.125 C 17.9375 21.558594 17.90625 22.785156 17.9375 23.75 C 18 25.75 18.1875 26.75 18.75 26.75 Z "/>
</g>
</svg>
